!!!COM: Palestrina, Giovanni Perluigi da
!!!OPR: Missa In festis Apostolorum (II)
!!!OMD: Gloria
!!!OTL: Glorificamus te
**kern	**kern	**kern	**kern	**kern
*Ibass	*Itenor	*Itenor	*Icalto	*Icant
!Bassus	!Tenor 2	!Tenor 1	!Altus	!Cantus
*clefF4	*clefGv2	*clefGv2	*clefG2	*clefG2
*k[]	*k[]	*k[]	*k[]	*k[]
*D:dor	*D:dor	*D:dor	*D:dor	*D:dor
*M4/2	*M4/2	*M4/2	*M4/2	*M4/2
=25	=25	=25	=25	=25
0r	1r	0r	1d	0r
.	1A	.	2e	.
.	.	.	2f	.
=26	=26	=26	=26	=26
1r	2B	0r	1g	0r
.	2c	.	.	.
1D	1d	.	1f	.
=27	=27	=27	=27	=27
2E	1c	0r	1e	0r
2F	.	.	.	.
1G	1B	.	2d	.
.	.	.	[2e	.
=28	=28	=28	=28	=28
1F	1A	0r	4e]	1a
.	.	.	4d	.
.	.	.	4d	.
.	.	.	8e	.
.	.	.	8f	.
1E	2r	.	1g	2b
.	2G	.	.	2cc
=29	=29	=29	=29	=29
1D	2A	1r	2f	1dd
.	2B	.	2d	.
1AA	2c	1A	2e	1cc
.	2A	.	2f	.
=30	=30	=30	=30	=30
1E	1G	2B	1g	1b
.	.	2c	.	.
2F	2r	1d	1f	2a
2G	2B	.	.	[2b
=31	=31	=31	=31	=31
1A	4c	1c	[0e	4b]
.	4d	.	.	4a
.	1e	.	.	1a
1E	.	1B	.	.
.	2B	.	.	2g#
=32	=32	=32	=32	=32
[0AA	[0c#	[0A	1e_	[0a
.	.	.	1e_	.
=33	=33	=33	=33	=33
0AA]	0c#]	0A]	0e]	0a]
*-	*-	*-	*-	*-
!!!CDT: 1525/^1526/-1594/2/2
!!!OCY: Italia
!!!AGN: Mass (Paraphrase)
!!!AST: renaissance, vocal
!!!ASW: Gregorian Mass
!!!PWK: Masses, Book Mantuan II
!!!RNB: Cadence finals: A
!!!YOR: Le Opere Complete, v. 19, p. 1
!!!YOO: Rome, Italy: Fratelli Scalera
!!!END: 1992//
!!!EED: John Miller
!!!YEC: Copyright 2000, John Miller
!!!YEN: United States of America
!!!YEM: Rights to all derivative electronic formats reserved.
!!!YEM: Refer to licensing agreement for further details.
!!!YEM: This file must be accompanied by the licensing agreement.
!!!YEM: A copy of the licensing agreement may be found at http://www.music-cog.ohio-state.edu/HumdrumDatabases/Palestrina/license.txt
!!!EMD: converted to Humdrum by Bret Aarden
